X: 266
T: Charleston No. 1
C:Willie Narmour
B: canberra pickers and fiddlers
B: tunes
M:4/4
L:1/8
R: reel
Q: 1/4=220
K:C
V:1 
cd|"C"ecGE CDEF|"C"GAcA a2g2|"C"c'age aged|"G"edcA "C"c2c2|
"C"ecGE CDEF|"C"GAcA a2g2|"C"c'age aged|"G"edcA "C"c2c2||
+slide+"C"[e4e4][e4e4]|[M:2/4]"C"[e2e2]a2|[M:4/4] "C"gedc "Am"AGED |"Am"EA2B "C"A2G2 |"C"ECDC A,C3|
+slide+"C"[C_E]-[C3=E3] C4|+slide+"C"[C_E]-[C3=E3] DCA,B,|"C"C2c2 "G"AGED|"C"ECDC A,C3|
+slide+"C"[C_E]-[C3=E3]C4|+slide+"C"[C_E]-[C3=E3] DCA,B,|"C"C2c2 "G"AGED|[M:6/4]"C"ECDC A,C3 C2||
% abcbook-tune_id 63ae8f1c8ae87dcc73a10c95
% abcbook-tune_composer_id 
% abcbook-link-0 https://www.youtube.com/watch?v=DGTumdE2wfQ
% abcbook-boost 0
% abcbook-difficulty 0
% abcbook-tags canberra pickers and fiddlers,old time tunes,© free
% abcbook-tablature 
% abcbook-transpose 
% abcbook-tuning GDAE
% abcbook-lastupdated 1738711573304
% abcbook-src-url https://tunebook.net/scrape/tunes.abc
% abcbook-soundfonts 
% abcbook-repeats 1


